public/img/psychology/b2-3.svg

<?xml version="1.0" encoding="UTF-8"?> <svg xmlns="http://www.w3.org/2000/svg" width="144" height="144" viewBox="0 0 144 144" fill="none"> <rect x="0.5" y="0.5" width="143" height="143" rx="71.5" stroke="#00865A"></rect> <path d="M27.6313 89V85.72H35.5513V62.8L27.6313 68.72V64.72L34.2313 59.8H39.1513V85.72H45.6313V89H27.6313ZM51.6956 89V85.32L60.6156 75.84C62.1356 74.2133 63.2423 72.7733 63.9356 71.52C64.629 70.24 64.9756 69.0133 64.9756 67.84C64.9756 66.2133 64.5223 64.9333 63.6156 64C62.7356 63.0667 61.5223 62.6 59.9756 62.6C58.269 62.6 56.9223 63.08 55.9356 64.04C54.9756 65 54.4956 66.32 54.4956 68H50.8956C50.949 66.24 51.349 64.72 52.0956 63.44C52.869 62.1333 53.9223 61.1333 55.2556 60.44C56.6156 59.7467 58.189 59.4 59.9756 59.4C61.7356 59.4 63.2556 59.7467 64.5356 60.44C65.8423 61.1067 66.8423 62.0667 67.5356 63.32C68.229 64.5733 68.5756 66.0667 68.5756 67.8C68.5756 69.4533 68.1356 71.0933 67.2556 72.72C66.3756 74.3467 64.9356 76.2 62.9356 78.28L55.7356 85.72H69.0556V89H51.6956ZM84 89.4C82.2133 89.4 80.6533 89.0533 79.32 88.36C78.0133 87.64 77 86.64 76.28 85.36C75.56 84.0533 75.2 82.5333 75.2 80.8V68C75.2 66.24 75.56 64.72 76.28 63.44C77 62.16 78.0133 61.1733 79.32 60.48C80.6533 59.76 82.2133 59.4 84 59.4C85.8133 59.4 87.3733 59.76 88.68 60.48C89.9867 61.1733 91 62.16 91.72 63.44C92.44 64.72 92.8 66.24 92.8 68V80.8C92.8 82.5333 92.44 84.0533 91.72 85.36C91 86.64 89.9733 87.64 88.64 88.36C87.3333 89.0533 85.7867 89.4 84 89.4ZM84 86.32C85.6 86.32 86.88 85.8133 87.84 84.8C88.8267 83.76 89.32 82.4267 89.32 80.8V68C89.32 66.3733 88.8267 65.0533 87.84 64.04C86.88 63 85.6 62.48 84 62.48C82.4 62.48 81.1067 63 80.12 64.04C79.16 65.0533 78.68 66.3733 78.68 68V80.8C78.68 82.4267 79.16 83.76 80.12 84.8C81.1067 85.8133 82.4 86.32 84 86.32ZM84 76.76C83.28 76.76 82.6933 76.5333 82.24 76.08C81.8133 75.6267 81.6 75.0267 81.6 74.28C81.6 73.56 81.8133 72.9867 82.24 72.56C82.6933 72.1067 83.28 71.88 84 71.88C84.72 71.88 85.2933 72.1067 85.72 72.56C86.1733 72.9867 86.4 73.56 86.4 74.28C86.4 75.0267 86.1733 75.6267 85.72 76.08C85.2933 76.5333 84.72 76.76 84 76.76ZM107.984 89.4C106.198 89.4 104.638 89.0533 103.304 88.36C101.998 87.64 100.984 86.64 100.264 85.36C99.5444 84.0533 99.1844 82.5333 99.1844 80.8V68C99.1844 66.24 99.5444 64.72 100.264 63.44C100.984 62.16 101.998 61.1733 103.304 60.48C104.638 59.76 106.198 59.4 107.984 59.4C109.798 59.4 111.358 59.76 112.664 60.48C113.971 61.1733 114.984 62.16 115.704 63.44C116.424 64.72 116.784 66.24 116.784 68V80.8C116.784 82.5333 116.424 84.0533 115.704 85.36C114.984 86.64 113.958 87.64 112.624 88.36C111.318 89.0533 109.771 89.4 107.984 89.4ZM107.984 86.32C109.584 86.32 110.864 85.8133 111.824 84.8C112.811 83.76 113.304 82.4267 113.304 80.8V68C113.304 66.3733 112.811 65.0533 111.824 64.04C110.864 63 109.584 62.48 107.984 62.48C106.384 62.48 105.091 63 104.104 64.04C103.144 65.0533 102.664 66.3733 102.664 68V80.8C102.664 82.4267 103.144 83.76 104.104 84.8C105.091 85.8133 106.384 86.32 107.984 86.32ZM107.984 76.76C107.264 76.76 106.678 76.5333 106.224 76.08C105.798 75.6267 105.584 75.0267 105.584 74.28C105.584 73.56 105.798 72.9867 106.224 72.56C106.678 72.1067 107.264 71.88 107.984 71.88C108.704 71.88 109.278 72.1067 109.704 72.56C110.158 72.9867 110.384 73.56 110.384 74.28C110.384 75.0267 110.158 75.6267 109.704 76.08C109.278 76.5333 108.704 76.76 107.984 76.76Z" fill="#00865A"></path> </svg>

<svg xmlns="http://www.w3.org/2000/svg" width="144" height="144" fill="none"><rect x=".5" y=".5" width="143" height="143" rx="71.5" stroke="#00865A"/><path d="M27.631 89v-3.28h7.92V62.8l-7.92 5.92v-4l6.6-4.92h4.92v25.92h6.48V89h-18zm24.065 0v-3.68l8.92-9.48c1.52-1.627 2.626-3.067 3.32-4.32.693-1.28 1.04-2.507 1.04-3.68 0-1.627-.454-2.907-1.36-3.84-.88-.933-2.094-1.4-3.64-1.4-1.707 0-3.054.48-4.04 1.44-.96.96-1.44 2.28-1.44 3.96h-3.6c.053-1.76.453-3.28 1.2-4.56a7.777 7.777 0 013.16-3c1.36-.693 2.933-1.04 4.72-1.04 1.76 0 3.28.347 4.56 1.04 1.306.667 2.306 1.627 3 2.88.693 1.253 1.04 2.747 1.04 4.48 0 1.653-.44 3.293-1.32 4.92-.88 1.627-2.32 3.48-4.32 5.56l-7.2 7.44h13.32V89h-17.36zM84 89.4c-1.787 0-3.347-.347-4.68-1.04a7.652 7.652 0 01-3.04-3c-.72-1.307-1.08-2.827-1.08-4.56V68c0-1.76.36-3.28 1.08-4.56a7.389 7.389 0 013.04-2.96c1.333-.72 2.893-1.08 4.68-1.08 1.813 0 3.373.36 4.68 1.08a7.389 7.389 0 013.04 2.96c.72 1.28 1.08 2.8 1.08 4.56v12.8c0 1.733-.36 3.253-1.08 4.56-.72 1.28-1.747 2.28-3.08 3-1.307.693-2.853 1.04-4.64 1.04zm0-3.08c1.6 0 2.88-.507 3.84-1.52.987-1.04 1.48-2.373 1.48-4V68c0-1.627-.493-2.947-1.48-3.96-.96-1.04-2.24-1.56-3.84-1.56-1.6 0-2.893.52-3.88 1.56-.96 1.013-1.44 2.333-1.44 3.96v12.8c0 1.627.48 2.96 1.44 4 .987 1.013 2.28 1.52 3.88 1.52zm0-9.56c-.72 0-1.307-.227-1.76-.68-.427-.453-.64-1.053-.64-1.8 0-.72.213-1.293.64-1.72.453-.453 1.04-.68 1.76-.68s1.293.227 1.72.68c.453.427.68 1 .68 1.72 0 .747-.227 1.347-.68 1.8-.427.453-1 .68-1.72.68zm23.984 12.64c-1.786 0-3.346-.347-4.68-1.04a7.657 7.657 0 01-3.04-3c-.72-1.307-1.08-2.827-1.08-4.56V68c0-1.76.36-3.28 1.08-4.56a7.393 7.393 0 013.04-2.96c1.334-.72 2.894-1.08 4.68-1.08 1.814 0 3.374.36 4.68 1.08a7.387 7.387 0 013.04 2.96c.72 1.28 1.08 2.8 1.08 4.56v12.8c0 1.733-.36 3.253-1.08 4.56-.72 1.28-1.746 2.28-3.08 3-1.306.693-2.853 1.04-4.64 1.04zm0-3.08c1.6 0 2.88-.507 3.84-1.52.987-1.04 1.48-2.373 1.48-4V68c0-1.627-.493-2.947-1.48-3.96-.96-1.04-2.24-1.56-3.84-1.56-1.6 0-2.893.52-3.88 1.56-.96 1.013-1.44 2.333-1.44 3.96v12.8c0 1.627.48 2.96 1.44 4 .987 1.013 2.28 1.52 3.88 1.52zm0-9.56c-.72 0-1.306-.227-1.76-.68-.426-.453-.64-1.053-.64-1.8 0-.72.214-1.293.64-1.72.454-.453 1.04-.68 1.76-.68s1.294.227 1.72.68c.454.427.68 1 .68 1.72 0 .747-.226 1.347-.68 1.8-.426.453-1 .68-1.72.68z" fill="#00865A"/></svg>
